X:1
T:Sonatine
T:Sonatine
T:M.Ravel
T:Ⅰ.Modéré
T:Ⅱ．Mouvement de Menuet
T:Ⅲ．Animé
C:M.Ravel
%%score { ( 1 2 5 ) | ( 3 4 6 ) }
L:1/8
Q:1/4=68
M:2/4
K:A
V:1 treble nm="Piano" snm="Pno."
V:2 treble 
V:5 treble 
V:3 treble 
V:4 treble 
V:6 treble 
V:1
"^Modéré" z"^doux et expressif"!p! (f c2- | c!<(!B/c/ de/f/ | geg/)!<)! z/!pp!"^subito" (!>!f |: %3
 c2-!<(! cB/c/ | de/f/!<)! g)!mf!(f | c'2- c'/c'/d'/e'/ | c'b/g/ fa) | (c'2- c'/c'/d'/e'/ | %8
 c'/b/c'/g/) z/4!<(! (F/4[cf]/4F/4)z/4(A/4[ea]/4A/4) | %9
 z/4 (c/4[fc']/4c/4[Beb]/g/)[Q:1/4=67] z/4 (F/4[cf]/4F/4)[Q:1/4=66]z/4(A/4[ea]/4[Q:1/4=80]A/4)!<)! | %10
 x/4[Q:1/4=66] (!>!c'b/[Q:1/4=80]g/) x/4[Q:1/4=66]!mf! (!>!cB/[Q:1/4=80]G/)!f! | %11
 x/4[Q:1/4=60] z/[Q:1/4=64]!>(! (c'/b/!>)![Q:1/4=80]g/) x/4[Q:1/4=56]"^dim." z/[Q:1/4=60][Q:1/4=50]!>(! (c/[Q:1/4=40]B/[Q:1/4=30]G/)!>)! | %12
[Q:1/4=68]!p!"^a Tempo""^en dehors" (B7/2 c/ |!p! B7/2 c/ |!p! B2- B/c/e/c/ | %15
!p! A!>(!B/c/ A!>)!G) |!p! (B2- B/c/e/c/ |!p! A!>(!B/c/ A!>)!G | %18
[Q:1/4=56]!p!!>(! F2[Q:1/4=50]!>)![Q:1/4=40] E2)[Q:1/4=30] | %19
!ppp![Q:1/4=58]"^Un peu retenu""^trés expresif" (ag/e/ c2) | (ag/e/ c2) | (ag/e/ c[Q:1/4=48]e) | %22
[Q:1/4=44]"^dim." ([F,=DG]2"^long" !fermata![Fc])"^a Tempo"[Q:1/4=68]!pp!!>(! ([CA]!>)![Q:1/4=40] | %23
 [B,DE]3)!pp!!>(! ([CA]!>)! | [B,DE]3)!pp!!>(! ([CA]!>)! |1 %25
 .[B,DE])!p!(!>![A,F][K:bass] ([E,G,C]2-) | C!<(!B,/C/ DE/F/ | %27
 GE!<)!!p! .G/) z/[K:treble]!pp! ((f :| .[B,DE]))(!>![^A,-F] [A,C]2) | z (!>![^A,-F] [A,C]2) | %30
 z!p! !tenuto![^Ac]2 !tenuto![Ac]- | [Ac] !tenuto![^Ac]2 !tenuto![Ac]- | %32
[Q:1/4=67][Ac] !tenuto![^Ac]2[Q:1/4=66] !tenuto![Ac]- | %33
[Ac][Q:1/4=64] !tenuto![^Ac] x/[Q:1/4=66]!mf! (!>!c'[Q:1/4=67]b[Q:1/4=90] |[Q:1/4=68] f2- fe/f/ | %35
 =ga/b/ c')(!>!b |!f!!8va(! f'2- f'/f'/=g'/a'/ | f'e'/d'/ bd') | (f'2- f'/f'/=g'/a'/ | %39
 f'/e'/f'/d'/ bd') |!>(! (f'e'/!>)!c'/)!8va)!!>(! (ba/!>)!f/) | %41
[Q:1/4=66]!mf!!>(! (f"^Poco   rit."e/!>)!c/)[Q:1/4=64]!mp!!>(! (B[Q:1/4=50]A/!>)![Q:1/4=40]!p!F/) | %42
"^a Tempo"!pp![Q:1/4=68] ([=G,B,E]7/2 F/ | [=G,B,E-]2 E/F/A/F/ | [=G,B,D]E/F/ [G,B,D]C) | %45
"^cresc." [=CEA-]2 A/B/d/"^cresc."B/ |[Q:1/4=69] [=G,=CE=G]A,/B,/"^cresc." [G,CEG] z | %47
!mf![Q:1/4=70]"^cresc." ([=FAd]>e) ([FAd]>e) |[Q:1/4=71]"^cresc." ([_Bd=g]>a)"^cresc." ([Bdg]>a) | %49
[Q:1/4=72]"^cresc." ([=FAd]>e)[Q:1/4=74] [FAd]/e/[FAd]/e/ | %50
[Q:1/4=76]!mf!!<(! ([_Bd=g]>a)[Q:1/4=78] [Bdg]/a/[Bdg]/a/!<)! | %51
!f![Q:1/4=84]"^Animé" !>![=c=f=c']2-!<(! [cfc']/d'/[cfb]/a/ | !>![=c^f=c']2- [cfc']/d'/[cfb]/a/ | %53
 !>![=c=g=c']2- [cgc']/d'/[cgb]/a/!<)! |!ff! (=c'>d'b>a) |"_dim." (=c'>d'b>"_dim."a) | %56
!f![Q:1/4=80] (=c'4[Q:1/4=78] |[Q:1/4=76] [Bb]2[Q:1/4=72] [Aa]2) | %58
[Q:1/4=68]"^1 Tempo"!mp! (!>!g"_tres expressif"f (c2-) | c!<(!B/c/ de/f/ | %60
 geg/)!<)! z/!pp!"^subito" (!>!f | c2-!<(! cB/c/ | de/f/!<)! g)!mf!(f | c'2- c'/c'/d'/e'/ | %64
 c'b/g/ fa) | (c'2- c'/c'/d'/e'/ | c'/b/c'/g/) z/4!<(! (F/4[cf]/4F/4)z/4(A/4[ea]/4A/4) | %67
 z/4 (c/4[fc']/4c/4[Beb]/g/) z/4 (F/4[cf]/4F/4)z/4(A/4[ea]/4[Q:1/4=80]A/4)!<)! | %68
 x/4[Q:1/4=66]!f! (!arpeggio!!>![cfc']!arpeggio![Beb]/[Q:1/4=70]g/)[Q:1/4=80] x/4[Q:1/4=65]!>(! (!>![Gcg]!arpeggio![FBf]/[Q:1/4=70]^d/) | %69
[Q:1/4=76] x/4[Q:1/4=64]"^dim." (!arpeggio!!>![^D^A^d][Q:1/4=52]!arpeggio![^B,G^B]/[Q:1/4=58]A/)[Q:1/4=56] x/4[Q:1/4=52] (!>!A[Q:1/4=48]G/[Q:1/4=44]^E/)!>)! || %70
[K:F#]!p!"^a Tempo"[Q:1/4=68] (G7/2 A/ |!p! G7/2 A/ |!p! G2- G/A/c/A/ |!p! F!>(!G/A/ F!>)!E) | %74
!p! (G2- G/A/c/A/ |!p! F!>(!G/A/ F!>)!E | %76
[K:bass]!p![Q:1/4=64] D2[Q:1/4=60][Q:1/4=40] C2)[Q:1/4=30] | %77
[K:treble]!ppp!"^Un peu retenu""^trés expresif"[Q:1/4=58] (fe/c/ A2) | (fe/c/ A2) | (fe/c/ Ac) | %80
[K:bass][Q:1/4=48]"^dim." ([D,B,E]2"^long"[Q:1/4=40] !fermata![DA])[K:treble]!pp![Q:1/4=68]!>(! ([A,F][Q:1/4=44] | %81
"^a Tempo" [G,B,C]3)!>)!!pp!!>(! ([A,F]!>)! | [G,B,C]3)!pp! ([A,F] | %83
!<(!"^cresc." C[Q:1/4=58]B,/!<)!C/!>(!"^dim." =D[Q:1/4=56]=E/F/!>)! | %84
[Q:1/4=54]"^dim." G3)[Q:1/4=44]"^dim."!>(! x!>)![Q:1/4=50] | %85
[Q:1/4=40] z[Q:1/4=30]!pp! [cac']2"^Lent"!ppp!!>(! =e/f/ | %86
[Q:1/4=24] x3/4!8va(! (3x/8x/8!>)!x/8 !fermata![c'a'c'']3!8va)! |] %87
[K:Db][M:3/8]"^Mouvt de Menuet"!p![Q:1/8=100] (d[Q:1/8=104] a2) | (d/g<a)[Q:1/8=100] (!>!d'/- | %89
[Q:1/8=104] d'c'/d'/b/c'/ | [Fcf])[Q:1/8=98] !>![Aea]2 | %91
[Q:1/8=104]!>(! ([Bb]!>)!!pp![Ff])!p!(!>![Aa]- |[Q:1/8=100] [Aa][Ff])[Q:1/8=104](!>!c- | %93
 cB/c/[Q:1/8=100]d) |[Q:1/8=96]!>(! [=G=g]!>)!!pp![Q:1/8=100][Ff]!p![Q:1/8=104](!>!c- | cB/c/=G- | %96
 GA/B/A/=G/ | F/=G/[Q:1/8=100] !>!E2 |[Q:1/8=98] F2) z :| %99
[Q:1/8=208] (2:1:2=g'/f'/-[Q:1/8=104]!pp! f'3 | (a/b/ c'2) | .f'.f'/.f'/.e'/.f'/ | (d' c'2) | %103
!pp! (c'b/c'/a/=g/) | (b2 f/a/) |!pp! (c'b/c'/a/=g/) | (b>fa/!pp!b/) |!mp! [=dfc']3 | %108
 (BA/B/!courtesy!_G/F/) |!pp!!<(! (B f2) | (d/e/ f2)!<)! |!p!!>(! (ba/b/g/a/) | (f>eB)!>)! | %113
!ppp![Q:1/8=110] [FA]2 z | [FA]2 z | z!<(! ([C=D]!<)!.[AB]) |!p! [fa]2 z | [fa]2 z | %118
 z ([c=d].[ab]) |!f![Q:1/8=90] (a/[Q:1/8=110]!<(!b<[cfac'][dd']/ | %120
 [eae']>[ff'][=gd'=g']/[aa']/)!<)! |!ff!!8va(! ([c'f'c'']/f'<[c'f'c'']a'/ | %122
[Q:1/8=108]!>(! [c'f'c'']>a'[Q:1/8=104][c'f'c'']-[Q:1/8=106] | %123
[Q:1/8=100]"^dim." [c'f'c'']/a'<[Q:1/8=92][c'f'c'']a'/[Q:1/8=84] | %124
[Q:1/8=76] [c'f'c'']>a'[Q:1/8=60][c'f'c'']/!p!a'/)!8va)!!>)![Q:1/8=68] || %125
[K:A]!pp![Q:1/8=94]"^Plus lent"!8va(! ([c'f'c''][gc'g']e'/f'/ | [gc'g']c''e'') | %127
 ([c'f'c'']g'e'/f'/ | [gc'g'][c'f'c'']e'') | ([c'g'c'']g'!arpeggio![egc'e']!8va)! | %130
 c'!arpeggio![Gceg]e) |!pp!"^Reprenez       peu       à        peu"[Q:1/8=96] (c G2) | %132
[Q:1/8=98] (E/F/Gc/e/) |!pp!"^le    Mouvt"[Q:1/8=100] (c G2) |[Q:1/8=102] (E/F/Gc/e/) | %135
"^a Tempo"[Q:1/8=104]!<(! (c G2) | (c G2)!<)! |!p!!>(! (c G2) |"^Sans ralentir" (c G2)!>)! || %139
[K:Db][Q:1/8=104]!pp! (d a2) | (d/g/a) z/ (!>!d'/- | d'c'/d'/b/c'/) | [Fcf] !>![Aea]2 | %143
!>(! ([Bb]!>)![Ff])(!>![Aa]- | [Aa][Ff])(!>!d- | dB/!courtesy!=c/d) | ([Aa][Ff])"^dim."(!>!d- | %147
[Q:1/8=102] dB/!courtesy!=c/[Q:1/8=100]F- | F)[Q:1/8=98](G/A/G/F/ | E/F/[Q:1/8=94] C2[Q:1/8=92] | %150
[Q:1/8=90] D2) z || %151
[K:E][Q:1/8=180]"^Un  peu  plus  lent  qu'au  début" (2:1:2(d'/c'/[Q:1/8=100]!pp! (c) g2) | %152
 (e/f/ g2) | (.c'.c'/.c'/.b/.c'/) | (=a g2) |!pp!!<(! (gf/g/e/d/!<)! |!p!!>(! f2 c/e/)!>)! | %157
!pp!!<(! (gf/g/e/d/!<)! |!p!!>(! f2 c/e/)!>)! |!p![Q:1/8=98] [^Acg]2 x | %160
[Q:1/8=96]"^dim." FE/F/=D/C/ |[Q:1/8=92]"^dim." E=D/E/"^dim."C/^B,/- | %162
[K:bass][Q:1/8=88]"^dim."!>(! [=A,^B,]3-[Q:1/8=80] | [B,,D,F,A,B,]3-!>)![Q:1/8=72] | %164
[Q:1/8=60] !fermata!z3[Q:1/8=84] ||[K:Db][K:treble]!mf![Q:1/8=84]"^Très lent" (A/[B,B]<[Cc][Dd]/ | %166
[Q:1/8=80] [Ee]>[Q:1/8=76][Ff][=Ge=g]/[Aa]/[Q:1/8=60] |!f![Q:1/8=68]!>(!"^dim." d'2)[Q:1/8=60] x | %168
[Q:1/8=48] !fermata!d'2!>)![Q:1/8=30] x |] %169
[K:A][M:3/4]"^Animé"[Q:1/4=160]!f![I:staff +1] C/^D/[Q:1/4=180][I:staff -1]F/A/[I:staff +1] c/[I:staff -1]^d/c/d/ c/A/A/F/ | %170
[I:staff +1] (C/^D/[I:staff -1]F/A/[I:staff +1] c/[I:staff -1]^d/c/d/ c/A/A/F/) | %171
[I:staff +1] (C/^D/[I:staff -1]F/A/[I:staff +1] c/[I:staff -1]^d/c/d/ c/A/A/F/) | %172
"^très marqué"!f! z z/ !>!c/ !>!f4 | z z/ !>!A/ !>![ce]4 | z z/ !>!F/ !>![B^d]z/!>!A/ !>![ce]2 | %175
 z z/ !>!c/ !>!f4- | f!>!e/!>!f/!<(! !>!c'4- | c'4-[Q:1/4=170] c'!>!b/!>!c'/!<)! | %178
!ff![Q:1/4=160] !>!e'2[Q:1/4=170][Q:1/4=180]!>(![I:staff +1] (!>!c/[I:staff -1]g/c/A/)[Q:1/4=180][I:staff +1] (!>!G/[I:staff -1]A/c/g/) | %179
[I:staff +1] (!>!G/[I:staff -1]g/c/A/)[I:staff +1] (!>!C/[I:staff -1]G/C/A,/)[I:staff +1] (!>!G,/[I:staff -1]A,/C/G/)!>)! | %180
!p!"^Agité"!<(! (G2 E2 G2!<)! |!f!!>(! !>!=E2 F2 (3^^FxG)!>)! |!p!!<(! (G2 E2 G2!<)! | %183
!f!!>(! !>!=E2 F2 (3^^FxG)!>)! |!p!!<(! G2 E2 G2 | B2 G2 B2!<)! |!f! z z/ !>!f/ !>!b4 | %187
 z z/ !>!d/ !>![fa]4 | z z/ !>!B/ !>![eg]z/!>!d/ !>![fa]2 | z z/ !>!f/ !>!b4- | %190
 b!>!a/!>!b/!<(! !>!f'4- | f'4- f'!>!e'/!>!f'/!<)! | %192
[Q:1/4=150]!ff!!8va(! (!>!c''/f'/[Q:1/4=180]d'/f'/)!8va)![I:staff +1] (f/[I:staff -1]c'/f/d/)[I:staff +1] (c/[I:staff -1]d/f/c'/) | %193
[I:staff +1] (c/[I:staff -1]c'/f/d/)[I:staff +1] (F/[I:staff -1]c/F/D/)!>(![I:staff +1] (C/[I:staff -1]D/F/c/)!>)! | %194
!p!!<(! (c2 A2 c2!<)! |!f!!>(! !>!=A2 B2 (3^Bxc)!>)! |!p!!<(! (c2 A2 c2!<)! | %197
!f!!>(! !>!=A2 B2 (3^Bxc)!>)! |!p!!<(! (c2 A2 c2!<)! |!f!!>(! e2 ^d2 (3:2:2z!>)! G2) | %200
!mf!!<(! (e2 c2 e2!<)! |!f!!>(! g2 f2 B2 | (!>!B3!>)! e))!mf! (e'/e/f/e/ | %203
!>(! e'/e/f/e/ e'/e/f/e/ e'/e/f/e/ | e'/e/f/e/ e'/e/f/e/ e'/e/f/e/)!>)! || %205
[M:5/4]!p!"^Même Mouvt Tranquille"[Q:1/4=130] e'2[Q:1/4=150] b2 ab =c'2 d'e' | %206
!p! e'2 b2 ab =c'2 d'e' |!p! e'2 b2 x =c'[Q:1/4=146]"^dim." (3d'2[Q:1/4=142] a2[Q:1/4=138] ^a2 | %208
[Q:1/4=134]"^Plus lent" (b2 f2 ef =g2 ab) | (b2 f2 ef =g2 ab) | %210
"^dim." (b2[Q:1/4=130] f3 =g[Q:1/4=126] (3((!tenuto!.a2[Q:1/4=122] !tenuto!.[Be]2!p![Q:1/4=118] !tenuto!.[cf]2))) | %211
!pp![Q:1/4=180]"^a Tempo""^très doux et expresif"!>(! (g2!>)! ^d2) (Gd)!pp!!>(! (d2!>)! c2) || %212
[M:4/4]!pp!!>(! (g2!>)! ^d2)!pp!!>(! (c'2!>)! g2) || %213
[M:5/4]!pp!!>(! (g2!>)! ^d2) (Gd)!pp!!>(! (d2!>)! c2) || %214
[M:4/4]!pp!!>(! (g2!>)! ^d2)!pp!!>(! (c'2!>)! g2) ||[M:3/4]!p!!<(! (!>!c'2 g2) (!>!c'2 | %216
 g2) (!>!c'2 g2) |[Q:1/4=190] (!>!e'2 c'2) (!>!e'2 | c'2) (!>!g'2 e'2)!<)! | %219
!f![Q:1/4=200]!<(! (!>!g'2 e'2) (!>!g'2 | e'2) (!>!g'2 e'2) | %221
[Q:1/4=210] (!>!g'2 e'2)!8va(![Q:1/4=160] !breath!.e''2!<)!!8va)! || %222
[M:5/4]"^très marqué"!ff!!ff![Q:1/4=150] (a'2[Q:1/4=160][Q:1/4=180] e'2 =c'd' _e'2 =f=g) | %223
 (a2 e2 =cd _e2 =F=G) ||[M:3/4][K:bass][Q:1/4=180]!f!!>(! (!>!A2 !>!E4) | (!>!A2 !>!E4) | %226
 (!>!A2 !>!E4) | (!>!A2 !>!E4)!>)! ||[K:treble]!pp! (A/c/e/c/) (=G/c/e/c/) (E/c/e/c/) | %229
[I:staff +1] (A/[I:staff -1]c/e/c/)[I:staff +1] (=G/[I:staff -1]c/e/c/)[I:staff +1] (E/[I:staff -1]c/e/c/) | %230
[I:staff +1] (A/[I:staff -1]c/e/c/)[I:staff +1] (=G/[I:staff -1]c/e/c/)[I:staff +1] (E/[I:staff -1]c/e/c/) | %231
[I:staff +1] (A/[I:staff -1]c/e/c/)[I:staff +1] (=G/[I:staff -1]c/e/c/)[I:staff +1] (E/[I:staff -1]c/e/c/) | %232
 z z/!p! e/ a4 | z z/ c/ =g4 | z z/ A/ fz/c/ =g2 | z z/ e/ a4- |!<(! a2- a=g/a/ e'2- | %237
[I:staff +1] (A/[I:staff -1]c/e/c/)[I:staff +1] (=G/[I:staff -1]c/e/c/)[I:staff +1] (E/[I:staff -1]c/e/c/) | %238
[I:staff +1] (A/[I:staff -1]c/e/c/)[I:staff +1] (=G/[I:staff -1]c/e/c/)[I:staff +1] (E/[I:staff -1]c/e/c/)!<)! | %239
!mf! E/!<(!=G/^A/c/ e/=g/^a/c'/!8va(! e'/=g'/^a'/c''/!<)! | %240
[I:staff +1] a'/!>(![I:staff -1]^a'/c''/a'/[I:staff +1] =g'/[I:staff -1]a'/c''/a'/[I:staff +1] e'/[I:staff -1]a'/c''/a'/ | %241
[I:staff +1] ^d'/[I:staff -1]^^f'/^a'/f'/[I:staff +1] c'/[I:staff -1]f'/a'/f'/[I:staff +1] ^a/[I:staff -1]f'/a'/f'/!8va)! | %242
[I:staff +1] a/[I:staff -1]^a/c'/a/[I:staff +1] =g/[I:staff -1]a/c'/a/[I:staff +1] e/[I:staff -1]a/c'/a/ | %243
[I:staff +1] ^d/[I:staff -1]^^f/^a/f/[I:staff +1] c/[I:staff -1]f/a/f/[I:staff +1] ^A/[I:staff -1]f/a/f/!>)! | %244
!mf![I:staff +1] =A/!>(![I:staff -1]^A/c/A/[I:staff +1] =G/[I:staff -1]A/c/A/[I:staff +1] E/[I:staff -1]A/c/A/ | %245
[I:staff +1] =A/[I:staff -1]^A/c/A/[I:staff +1] =G/[I:staff -1]A/c/A/[I:staff +1] E/[I:staff -1]A/c/A/!>)! | %246
!p! (a2 =g2 e2) | (3=A^Ac (3=GAc (3EAc |!pp! (a2 =g2 e2) | (3=A^Ac (3=GAc (3EAc | (a2 =g2 e2) | %251
 (3=A^Ac (3=GAc (3EAc | (a2 =g2 e2) | (3=A^Ac (3=GAc (3EAc | (a2 =g2 e2) | (3=A^Ac (3=GAc (3EAc | %256
 (a2 =g2 e2) | (3=A^Ac (3=GAc (3EAc | (a2 =g2 e2) |!<(! (3=A^Ac (3=GAc (3EAc | %260
 (3=A^Ac (3=GAc (3EAc!<)! |!mp! (3=A!>(!^Ac (3=GAc (3EAc | %262
[Q:1/4=170] (3=A"^dim."^Ac[Q:1/4=160] (3=GAc[Q:1/4=150] (3EA[Q:1/4=200]c!>)! || %263
[M:5/4][Q:1/4=300] x[Q:1/4=160]"^très expresif"!pp!!>(! (!>!c'2!>)! f2 ef g2 ac') | %264
!pp!!>(! (!>!c'2!>)! f2 ef g2 ac') ||[M:2/4]!pp!!>(! (!>!c'2!>)! f2) || %266
[M:5/4]!pp!!>(! (!>!b2!>)! e2 de f2 =gb) ||[M:2/4]!pp!!>(! (!>!b2!>)! e2) || %268
[M:3/4]!p!!>(! (!>!a2!>)! d2) x2 | z/ (_B/d/B/) z/ (B/d/B/) z/ (B/d/B/) | %270
 z/ (!>!A/_B,/A/) z/ (!>!D/B,/D/) z2 |[K:bass] z/!>(! (_B,/D/B,/) z/ (B,/D/B,/) z/ (B,/D/B,/) | %272
 (!>!A2 =G2 D2) |[Q:1/4=140]"^dim." (3A,_B,D[Q:1/4=130] (3=G,B,D[Q:1/4=120] (3D,B,D!>)! | %274
"^a Tempo"!pp![Q:1/4=180] z z/ B,/ E4 | z z/ G,/ ^D4 | z z/ E,/ Dz/G,/ ^D2 |!<(! z z/ B,/ E4- | %278
 E4- ED/E/!<)! |!mf! (!>!B2 A2 E2) | (!>!B,2 A,2 E,2) |[K:treble]!p! z z/ [EG]/ e4 | %282
 z z/ [^DG]/ [B^d]4 | z z/ [=DE]/ [Gd]z/[^DG]/ [B^d]2 |!<(! z z/ [EG]/ [Be]4- | %285
 [Be]4- [Be]d/e/!<)! |!f! (3!>!be=c (3a!>(!ec (3ecF | (3!>!BE=C (3AEC (3ECF,!>)! | z z/!pp! G/ c4 | %289
 z z/ F/ B4 | z z/ [B,^D]/ Gz/[CF]/ B2 | z z/ G/!<(! c4- | c4- cB/c/!<)! | %293
!mf! (g2 f2 !courtesy!=d2) | (3G^B,A, (3FB,A, (3DB,A, |!p! z z/ c/ f4 | z z/ ^A/ [ce]4 | %297
 z z/ F/ [^A^d]z/A/ [ce]2 |!<(! z z/ c/ [^Aef-]2 fe/f/!<)! |!mf! (b/=g/d/B/ =G/D/B,/D/ G/B/d/g/) | %300
!<(! z z/ f/ [^dab-]2 ba/b/ | e'4- e'd'/e'/ |!8va(! a'4- a'=g'/a'/!<)! | %303
!ff![Q:1/4=150] !>!c''/^g'/[Q:1/4=180]^e'/b/[Q:1/4=200][I:staff +1] c''/!>(![I:staff -1]b/e'/g'/[I:staff +1] g'/[I:staff -1]g'/e'/b/!8va)! | %304
[I:staff +1] d/[I:staff -1]g/^e/B/[I:staff +1] c/[I:staff -1]B/e/g/[I:staff +1] G/[I:staff -1]g/e/B/ | %305
[Q:1/4=190][I:staff +1] d/[I:staff -1]B/^e/g/[I:staff +1] c/[I:staff -1]g/e/B/[I:staff +1] G/[I:staff -1]B/e/g/ | %306
[Q:1/4=180][I:staff +1] d/[I:staff -1]g/^e/B/[Q:1/4=175]"^dim."[I:staff +1] c/[I:staff -1]B/e/g/[Q:1/4=170][I:staff +1] G/[I:staff -1]g/e/B/ | %307
[Q:1/4=165][I:staff +1] d/[I:staff -1]B/^e/g/[Q:1/4=160][I:staff +1] c/[I:staff -1]g/e/B/[Q:1/4=155][I:staff +1] G/[I:staff -1]B/e/g/!>)! || %308
[M:5/4]!pp![Q:1/4=160]"^a Tempo""^tranquille" c'2 g2 fg a2 bc' | c'2 g2 fg a2 bc' | %310
 c'2 g3 a[Q:1/4=150]"^dim." (3b2[Q:1/4=140] f2[Q:1/4=130] ^^f2 | %311
"^Plus lent"[Q:1/4=138] (g2 ^d2 cd e2 fg) | (g2 ^d2 cd e2 fg) | %313
[Q:1/4=136]"^dim." (g2[Q:1/4=134] ^d3 e[Q:1/4=130] (3((!tenuto!.f2 !tenuto!.[Gc]2 !tenuto!.[^Ad]2)))[Q:1/4=132][Q:1/4=128] || %314
[K:C]!pp!"^a Tempo""^très doux et expresif"[Q:1/4=160]!>(! (f2!>)! c2) (Fc)!pp!!>(! (c2!>)! _B2) || %315
[M:4/4]!pp!!>(! (f2!>)! c2)!pp!!>(! (_b2!>)! f2) || %316
[M:5/4]!pp!!>(! (f2!>)! c2) (Fc)!pp!!>(! (c2!>)! _B2) || %317
[M:4/4]!pp!!>(! (f2!>)! c2)!pp!!>(! (_b2!>)! f2) ||[M:3/4]!p!!<(! (!>!_b2 f2) (!>!b2 | %319
 f2) (!>!_b2 f2) | (!>!_d'2 _b2) (!>!d'2 | _b2) (!>!f'2 _d'2)!<)! || %322
[K:F#]!f![Q:1/4=164]!<(! (!>!!courtesy!^e'2 c'2)[Q:1/4=168] (!>!e'2 | %323
 c'2)[Q:1/4=172] (!>!e'2 c'2) |[Q:1/4=176] (!>!e'2[Q:1/4=180] c'2)!8va(! !breath!.c''2!<)!!8va)! || %325
[M:5/4]"^très marqué"!ff!!ff![Q:1/4=150] (f'2[Q:1/4=160][Q:1/4=180] c'2 =ab =c'2 =d=e) | %326
 (f2 c2 =AB =c2 =D=E) ||[M:3/4][K:bass]"^Accélérez"!f! (!>!F2 !>!C4) |[Q:1/4=184] (!>!F2 !>!C4) | %329
[Q:1/4=188] (!>!F2 !>!C4) |"^Très animé"[Q:1/4=192]!<(!!<(! (!>!F2 C2)[K:treble][Q:1/4=196] (=A2 | %331
 =E2)[Q:1/4=200] (=c2 _B2)!<)!!<)! |!ff! (!>!f2 c4) | %333
[Q:1/4=204]!<(!!<(! (!>!f2 c2)[Q:1/4=208] (=a2 | =e2)[Q:1/4=212] (=c'2 _b2)!<)!!<)! | %335
!fff! (!>!f'2 c'4) | (!>!f'2 c'4) | (!>!f'2 c'4) | (!>!f'2 c'4) | %339
 [^ac'f']2 z2 z2!fff![Q:1/4=80][I:staff +1] (F,/4[Q:1/4=100]C/4[Q:1/4=120]F/4^^G/4[Q:1/4=180][I:staff -1]A/4c/4f/4[Q:1/4=80]a/4- | %340
[Q:1/4=80] a2-) z2 z2 |] %341
V:2
 x z/4 A/4c/4A/4 z/4 E/4G/4E/4z/4E/4G/4E/4 | z/4 E/4G/4E/4B/4D/4c/4D/4 z/4 F/4A/4F/4e/4G/4f/4G/4 | %2
 z/4 A/4c/4A/4z/4A/4c/4A/4 (3:2:4z/ (A/!p!c/4) z/4 z/4 A/4c/4A/4 |: %3
 z/4 E/4G/4E/4z/4E/4G/4E/4 z/4 E/4G/4E/4B/4D/4c/4D/4 | %4
 z/4 F/4A/4F/4e/4G/4f/4G/4 z/4 A/4c/4A/4 z/4 A/4c/4A/4 | %5
 z/4 c/4g/4c/4z/4c/4g/4c/4 z/4 c/4g/4c/4=g/4e/4g/4e/4 | %6
 z/4 c/4f/4c/4e/4B/4g/4B/4 z/4 F/4c/4F/4z/4A/4e/4A/4 | %7
 z/4 c/4g/4c/4z/4c/4g/4c/4 z/4 c/4g/4c/4=g/4e/4g/4e/4 | f/4c/4e/4B/4f/4c/4g/4G/4 x2 | x4 | %10
 x/4 !arpeggio![cf][Be] x/4 [CF][B,E] | %11
 x/4 x3/8 x/16x/16 !arpeggio![cf]/[Be] x/4 x3/8 x/16x/16 !arpeggio![CF]/[B,E] | z!>(! (F^E!>)!G) | %13
 z!>(! (F^E!>)!G) | z!>(! F^E=E!>)! | z ^D=DC | z!>(! F^E=E!>)! | z ^D=DC | z"^dim." [A,D]2 [G,C] | %19
 z (A2 G) | z (A2 G) | z (A2 G) | x4 | x4 | x4 |1 x2[K:bass] x2 | [E,G,][D,F,] [F,A,][G,B,] | %27
 [A,C]2 [A,C][K:treble] z/4"_subito" A/4c/4A/4 :| x4 | x4 | x4 | x4 | x4 | %33
 x2 x/ f/4d/4f/4d/4f/4d/4f/4d/4 | c/4A/4c/4A/4!<(!c/4A/4c/4A/4 B/4=G/4B/4G/4B/4G/4B/4G/4 | %35
 d/4B/4d/4B/4e/4c/4e/4c/4!<)! f/4d/4f/4d/4f/4d/4f/4d/4 | %36
!8va(! f'/4a/4=c'/4a/4c'/4a/4c'/4a/4 c'/4a/4f'/4a/4=g'/4a/4a'/4a/4 | %37
 f'/4=g/4b/4g/4e'/4g/4d'/4g/4 b/4g/4b/4g/4d'/4g/4d'/4g/4 | %38
 f'/4a/4=c'/4a/4c'/4a/4c'/4a/4 c'/4a/4f'/4a/4=g'/4a/4a'/4a/4 | %39
 f'/4=g/4e'/4g/4f'/4g/4d'/4g/4 b/4g/4b/4g/4d'/4g/4d'/4g/4 | (=ba)!8va)! ([d=g]c) | (=BA) ([D=G]C) | %42
 x4 | x4 | x4 | x4 | x4 | x4 | x4 | x4 | x4 | x4 | x4 | x4 | z (^gfg) | z (gfg) | z"_dim." (gfg) | %57
 z (gfg) | z/4 A/4c/4A/4c/4A/4c/4A/4 z/4 E/4G/4E/4z/4E/4G/4E/4 | %59
 z/4 E/4G/4E/4B/4D/4c/4D/4 z/4 F/4A/4F/4e/4G/4f/4G/4 | %60
 z/4 A/4c/4A/4z/4A/4c/4A/4 (3:2:4z/ (A/!p!c/4) z/4 z/4 A/4c/4A/4 | %61
 z/4 E/4G/4E/4z/4E/4G/4E/4 z/4 E/4G/4E/4B/4D/4c/4D/4 | %62
 z/4 F/4A/4F/4e/4G/4f/4G/4 z/4 A/4c/4A/4 z/4 A/4c/4A/4 | %63
 z/4 c/4g/4c/4z/4c/4g/4c/4 z/4 c/4g/4c/4=g/4e/4g/4e/4 | %64
 z/4 c/4f/4c/4e/4B/4g/4B/4 z/4 F/4c/4F/4z/4A/4e/4A/4 | %65
 z/4 c/4g/4c/4z/4c/4g/4c/4 z/4 c/4g/4c/4=g/4e/4g/4e/4 | f/4c/4e/4B/4f/4c/4g/4G/4 x2 | x4 | %68
 x/4 x7/8 x/16x/16 x (5:4:5x/16x/16x/16x/16x/16 x7/8 x/16x/16 x | %69
 x/4 x7/8 x/16x/16 x/4 x/ x/4 x/4 [=B,^D]2 ||[K:F#] z!>(! (D^^C!>)!E) | z!>(! (D^^C!>)!E) | %72
 z!>(! (D^^C^C)!>)! | z (^B,=B,A,) | z!>(! (D^^C^C)!>)! | z (^B,=B,A,) | %76
[K:bass] z"^dim." ([F,B,]2 [E,A,]) |[K:treble] z (F2 E) | z (F2 E) | z (F2 E) | %80
[K:bass] x3[K:treble] x | x4 | x4 | [G,B,]2 [F,^B,]2 | [^A,C]3 (!>![=A,^B,=E] | [^A,CG]3) [=A^B] | %86
 [^Acg]4 |][K:Db][M:3/8] (.[Fd].[Ad].[Ad]) | (.[Ad].[Ad].[Ad]) | (.[df].[cf].[Bf]) | x3 | d2 x | %92
 c2 ([C=GA-] | [DFA]2) [F=G] | A2 ([C=GA-] | [DFA]2) F | [CE]2 [DF] | ([B,D]CB, | [A,C]2) x :| %99
 x/ (f c'2) |{=e'=d'} x x x3/4 x/8x/8 |{gb} x x x3/4 x/8x/8 | %102
{_fa} x/ x/4 x/8x/8{e=g}x/x/4x/8x/8-({e_g-)} x/ x/4 (3x/8x/8x/8 | !arpeggio![c=df]3 | %104
 !arpeggio![_ce]3 | !arpeggio![c=df]3 | !arpeggio![_ce]3 | (c!>(!B/c/A/=G/) | (E=D=C)!>)! | x3 | %110
 G3 | [Bf]3 | G2 G | (EA,D | C A,2) | x3 | (e!<(!Ad | c A2) | x2 x3/4 x/4!<)! | %119
{/[e'f'a']} x/ x/ x2 | x3 |!8va(! x3 | x3 | x3 | x3!8va)! ||[K:A]!8va(! x3 | x3 | x3 | x3 | %129
 x x3/4 (3x/8x/8x/8 x!8va)! | x3/4 (3x/8x/8x/8 x2 | [DE]3 | [DE]3 | [DE]3 | [DE]3 | [DE]3 | %136
 [D^E]3 | [^DF]3 | [E^^F]3 ||[K:Db] ([Fd] A2) | ([Fd] A2) | (.[df].[cf].[Bf]) | x3 | d2 x | _c2 z | %145
 ([B,G]2 F) | _c2 z | ([B,G]2 D) | (C2 D) | (B,2 A,) |[I:staff +1] [F,A,]2[I:staff -1] x || %151
[K:E] x/ x2 x3/4 x/8x/8 |{^b^a} x/ x/ x x3/4 x/8x/8 |{=df} x x x3/4 x/8x/8 |{=B=d} x x x | [^Ac]3 | %156
 [=A^B]3 | [^Ac]3 | [=A^B]3 | G"^dim."F/G/E/D/ | [=A,^B,]3 | [=A,^B,]3 |[K:bass] F,2- [^B,,=D,]- | %163
 x3 | x3 ||[K:Db][K:treble] [DF]3 | x3 | ([d_g]2 [df] | [de]!p! !fermata![df]2) |][K:A][M:3/4] x6 | %170
 x6 | x6 | x6 | x6 | x6 | x6 | x6 | (f/g/f/g/ f/g/f/g/ f/g/) z | (e'/c'/a/c'/) x4 | x6 | %180
 (3G^B,G, (3ECA, (3G^^C^A, | (3E^DB, (3F=D^A, (3^^F[=A,C]G | (3G^B,G, (3ECA, (3G^^C^A, | %183
 (3E^DB, (3F=D^A, (3^^F[=A,C]G | (3G^B,G, (3ECA, (3G^^C^A, | (3B^DB, (3GE^B, (3B^EC | %186
 !>![DFc]2 x4 | x6 | x6 | x6 | x6 | (b/c'/b/c'/ b/c'/b/c'/ b/c'/) z |!8va(! x2!8va)! x4 | x6 | %194
 (3c^EC (3AF=D (3c^^F^D | (3AGE (3B^^F^D (3^B[=D^F]c | (3c^EC (3AF=D (3c^^F^D | %197
 (3AGE (3B^^F^D (3^B[=D^F]c | (3c^EC (3AF=D (3c^^F^D | (3eGE (3^dA^E (3x GF | (3eGE (3cA^E (3e^AF | %201
 z2 (3fcG (3BFC |[I:staff +1] (E,/B,/E/F/ G/B/[I:staff -1]e/f/) x2 | x6 | x6 || %205
[M:5/4] (e'/e/=f/e/ b/e/f/e/ a/e/b/e/ =c'/e/^f/e/ d'/e/e'/)e/ | %206
 (e'/e/=f/e/ b/e/f/e/ a/e/b/e/ =c'/e/^f/e/ d'/e/e'/)e/ | %207
 (e'/e/=f/e/ b/e/f/e/ z/ e/=c'/e/ (3d'^fa (3e^a)d | z2 !courtesy!=B4 z2 [Be]2 | %209
 z2 !courtesy!=B4 z2 [Be]2 | z2 !courtesy!=B4 x4 | %211
 x2 (^d/^B/G/^D/) (G/[I:staff +1]D/B,/G,/)[I:staff -1] x2 (c/E/F/^A/) || %212
[M:4/4] x2 (^d/^B/G/B/) x2 (g/e/c/G/) || %213
[M:5/4] x2 (^d/^B/G/^D/) (G/[I:staff +1]D/B,/G,/)[I:staff -1] x2 (c/E/F/^A/) || %214
[M:4/4] x2 (^d/^B/G/B/) x2 (g/e/c/G/) ||[M:3/4] z2 g/e/c/e/ z2 | g/e/c/e/ z2 g/e/c/e/ | %217
 z2 c'/g/e/g/ z2 | c'/g/e/g/ z2 e'/c'/g/c'/ | z2 e'/^b/g/b/ z2 | e'/^b/g/b/ z2 e'/b/g/b/ | %221
[I:staff +1] (6:4:6(^A,/E/(G/^B/)[I:staff -1]e/g/) (6:4:6(e'/!8va(![I:staff +1]g/(^a/^b/)[I:staff -1]e'/g'/) x2!8va)! || %222
[M:5/4] (a'/e'/c'/a/) (e'/b/=g/e/) (=c'/a/d'/a/) (_e'/_b/g/_e/) (=f/_d/g/d/) | %223
 (a/e/c/A/) (e/B/=G/E/) (=c/A/d/A/) (_e/_B/G/_E/) (=F/_D/G/D/) || %224
[M:3/4][K:bass] (3AEC (3EB,=G, (3^B,^G,=F, | (3AEC (3EB,=G, (3^B,^G,=F, | %226
 (3AEC (3EB,=G, (3^B,^G,=F, | (3AEC (3EB,=G, (3^B,^G,=F, ||[K:treble] A2 =G2 E2 | x6 | x6 | x6 | %232
 x6 | x6 | x6 | x6 | x6 | x6 | x6 | x4!8va(! x2 | x6 | x6!8va)! | x6 | x6 | x6 | x6 | %246
 (3=ac^A (3=gcA (3ecA | (A2 =G2 E2) | (3=ac^A (3=gcA (3ecA | (A2 =G2 E2) | (3=ac^A (3=gcA (3ecA | %251
 (A2 =G2 E2) | (3=ac^A (3=gcA (3ecA | (A2 =G2 E2) | (3=ac^A (3=gcA (3ecA | (A2 =G2 E2) | %256
 (3=ac^A (3=gcA (3ecA | (A2 =G2 E2) | (3=ac^A (3=gcA (3ecA | (A2 =G2 E2) | (A2 =G2 E2) | %261
 (A2 =G2 E2) | (A2 =G2 E2) ||[M:5/4] x c'/d/ c'/d/ f/d/ f/d/ e/d/f/d/ g/e/ c/e/ a/e/c'/c/ | %264
 c'/d/c'/d/ f/d/f/d/ e/d/f/d/ g/e/c/e/ a/e/c'/c/ ||[M:2/4] c'/d/c'/d/ f/d/f/d/ || %266
[M:5/4] b/=c/b/c/ e/c/e/c/ d/c/e/c/ f/d/B/d/ =g/d/b/B/ ||[M:2/4] b/=c/b/c/ e/c/e/c/ || %268
[M:3/4] a/!<(!_B/a/B/ d/B/d/B/ d/B/d/B/ | x6 | x6!<)! |[K:bass] x6 | (3AD_B, (3=GDB, (3DB,D, | %273
 A,2 =G,2 D,2 | ^G,6 | x6 | x6 | x6 | x6 | (3B!>(!E=C (3AEC (3ECF, | %280
 (3B,E,=C, (3A,E,C, (3E,C,F,,!>)! |[K:treble] x6 | x6 | x6 | x6 | x6 | ([Bb]2 [Aa]2 e2) | %287
 (B2 A2 E2) | x6 | x6 | x6 | x6 | x6 | (3!>!g!>(!^B=A (3fBA (3dBA | (G2 F2 D2)!>)! | %295
 !>!G2[I:staff +1] F2 C2 | x6 | x6 | x6 | x6 | x6 | %301
[I:staff -1] (e'/b/g/!courtesy!=d/) z/ (d/g/b/) x2 |!8va(! (a'/e'/c'/=g/) z/ (g/c'/e'/) x2 | %303
 x6!8va)! | x6 | x6 | x6 | x6 || %308
[M:5/4] (!courtesy!^c'/c/=d/c/ g/c/d/c/ f/c/g/c/ a/c/^d/c/ b/c/c'/)c/ | %309
 (!courtesy!^c'/c/=d/c/ g/c/d/c/ f/c/g/c/ a/c/^d/c/ b/c/c'/)c/ | %310
 (^c'/c/=d/c/x/c/d/c/ d/c/a/c/ (3b^df (3c^^f)B | z2 !courtesy!^G4 z2 [Gc]2 | %312
 z2 !courtesy!^G4 z2 [Gc]2 | z2 !courtesy!^G4 x4 || %314
[K:C] x2 (c/A/F/C/) (F/[I:staff +1]C/A,/F,/)[I:staff -1] x2 (_B/F/G/B/) || %315
[M:4/4] x2 (c/A/F/A/) x2 (f/_d/_B/F/) || %316
[M:5/4] x2 (c/A/F/C/) (F/[I:staff +1]C/A,/F,/)[I:staff -1] x2 (_B/F/G/B/) || %317
[M:4/4] x2 (c/A/F/A/) x2 (f/_d/_B/F/) ||[M:3/4] x2 f/_d/_B/d/ x2 | f/_d/_B/d/ x2 f/d/B/d/ | %320
 x2 _b/f/_d/f/ x2 | _b/f/_d/f/ x2 _d'/b/f/b/ ||[K:F#] x2 c'/=a/e/a/ x2 | c'/=a/e/a/ x2 c'/a/e/a/ | %324
[I:staff +1] (6:4:6(=G,/C/(E/=A/)[I:staff -1]c/e/) (6:4:6(!>!c'/!8va(![I:staff +1]e/(=g/=a/)[I:staff -1]c'/e'/) x2!8va)! || %325
[M:5/4] (f'/c'/a/f/) (c'/g/=e/c/) (=a/f/b/f/) (=c'/=g/e/=c/) (=d/^A/e/A/) | %326
 (f/c/A/F/) (c/G/=E/C/) (=A/F/B/F/) (=c/=G/E/=C/) (=D/^A,/E/A,/) || %327
[M:3/4][K:bass] (3FCA, (3CG,=E, (3=A,F,=D, | (3FCA, (3CG,=E, (3=A,F,=D, | %329
 (3FCA, (3CG,=E, (3=A,F,=D, | (3FCA, (3CG,=E,[K:treble] (3!>!=A=E=C | %331
 (3=EB,=G, (3!>!=c=GE (3_BG_E | (3fcA (3cG=E (3=AF=D | (3fcA (3cG=E (3!>!=a=e=c | %334
 (3=eB=G (3!>!=c'=ge (3_bg_e | (3f'c'a (3c'g=e (3=af=d | (3f'c'a (3c'g=e (3=af=d | %337
 (3f'c'a (3c'g=e (3=af=d | (3f'c'a (3c'g=e (3=af=d | x8 | !>![Acf]2- x4 |] %341
V:3
 z!ped! c/ z/!ped-up!!ped! G/z/G/ z/!ped-up! | %1
!ped! G/z/!ped-up!!ped!F/ z/!ped-up!!ped! A/z/!ped-up!!ped!B/ z/!ped-up! | %2
!ped! c/z/c/z/c/ z/!ped-up!!ped! c/ z/!ped-up! |: %3
!ped! G/z/G/ z/!ped-up!!ped! G/z/!ped-up!!ped!F/ z/!ped-up! | %4
!ped! A/z/!ped-up!!ped!B/ z/!ped-up!!ped! c/z/!ped-up!!ped!c/ z/!ped-up! | %5
!ped! ([^Ae]A!ped-up!!ped!e!ped-up!!ped!A)!ped-up! | %6
!ped! (.d.d)!ped-up!!ped! ([B,^DA]!ped-up!!ped![=DF=c])!ped-up! | %7
!ped! ([^Ae]A!ped-up!!ped!e!ped-up!!ped!A)!ped-up! | %8
!ped! (.d.d)!ped-up!!ped! ([B,^DA]!ped-up!!ped![=DF=c])!ped-up! | %9
!ped! (.d.d)!ped-up!!ped! ([B,^DA]!ped-up!!ped![=DF=c])!ped-up! | %10
!ped! (5:4:5x/16x/16x/16x/16x/16 [EGd]2!ped-up!!ped! x/4[K:bass] !arpeggio![E,G,D]2!ped-up! | %11
[K:treble]!ped! x/8x/8!>(! !arpeggio![Ed]2!>)!!ped-up![K:bass]!ped! x/4!>(! A,!>)!G,!ped-up! | %12
 z ([D,A,][C,G,][=E,B,]) | z ([D,A,][C,G,][=E,B,]) | z!>(! ([D,A,]!>)! [C,G,]2) | z ([B,,F,]2 E,) | %16
!ped! z!>(! ([D,A,]!ped-up!!>)!!ped! [C,G,]2)!ped-up! |!ped! z ([B,,F,]2!ped-up!!ped! E,)!ped-up! | %18
!ped! z!>(! ([B,,,B,,]2!ped-up!!>)!!ped! [C,,C,])!ped-up! | %19
!ped! !tenuto!F2!ped-up!!ped! !tenuto!E2!ped-up! | %20
!ped! !tenuto!F2!ped-up!!ped! !tenuto!E2!ped-up! | %21
!ped! !tenuto!F2!ped-up!!ped! !tenuto!E2!ped-up! | %22
!ped! !fermata![E,,B,,]"^mg."[I:staff -1] [de][I:staff +1]!fermata![G,DE]!ped-up!!>(!!ped! [A,,E,]!>)!!ped-up! | %23
!pp!!ped! z[K:treble] !tenuto![de]2!ped-up![K:bass]!>(!!ped! x!>)!!ped-up! | %24
!pp!!ped! z[K:treble] !tenuto![de]2!ped-up![K:bass]!ped!!>(! x!ped-up!!>)! |1 %25
!ped! .[=G,,D,]!ped-up!!ped!!>![F,,C,]!ped-up!!ped! z (!>!C,- | %26
 C,!ped-up!!ped!B,,/C,/!ped-up!!ped! D,E,/F,/!ped-up! | %27
!ped! G,E, .G,/)!ped-up! z/[K:treble]!ped! c/ z/!ped-up! :| %28
[K:bass]!ped! x3!ped-up!!ped!!ped-up!!ped![K:treble] !tenuto![Ee]- | %29
[Ee]!ped-up![K:bass]!ped! x2!ped-up!!ped![K:treble] !tenuto![Ee]- | %30
[Ee]!ped-up!!ped! ([Ee]2!ped-up!!ped! [Dd]/[Ee]/ | %31
 [Ff]!ped-up!!ped![Dd]/C/ [Ee])!ped-up!!ped! ([Ee]- | %32
[Ee]!ped-up!!ped! [Ee]2!ped-up!!ped! [Dd]/[Ee]/ | %33
 [Ff]!ped-up![Dd]/C/)!ped! (3(C/4D/4F/4"^trés expresif" !>!c)B!ped-up! | %34
!ped! F2-!ped-up!!ped! FE/F/!ped-up! |!ped! =G!ped-up!!ped!A/B/!ped-up!!ped! cB!ped-up! | %36
!ped! (^d^d'dB)!ped-up! |!ped! (=dbdB)!ped-up! |!ped! (^d^d'dB)!ped-up! |!ped! (=dbd_B)!ped-up! | %40
!>(!!ped! (d!>)!c)!ped-up!!ped! x2!ped-up! |[K:bass]!>(!!ped! (D!>)!C)!ped-up!!ped! x2!ped-up! | %42
!ped! z ([A,,D,][E,,A,,])A,!ped-up! |!ped! z ([A,,D,][E,,A,,])A,!ped-up! | %44
!ped! z ([A,,D,][E,,A,,])A,!ped-up! |!ped! z ([A,,D,][E,,A,,])[F,F]!ped-up! | %46
!ped! z ([A,,D,][E,,A,,])[F,F]!ped-up! |!ped! [A,B,]3 [A,B,]!ped-up! |!ped! [DE]3 [DE]!ped-up! | %49
!ped! [A,B,]3 [A,B,]!ped-up! |!ped! [DE]3 [DE]!ped-up! |!ped! z !>![E=F][E,,E,][EF]!ped-up! | %52
!ped! z !>![E^F][E,,E,][EF]!ped-up! |!ped! z !>![EG][E,,E,][EG]!ped-up! | %54
[K:treble]!ped! z"^passioné" ([^G=c][EF][Gc])!ped-up! |!ped! z ([G=c][EF][Gc])!ped-up! | %56
!ped! z ([G=c][DF][Gc])!ped-up! |!ped! z ([G=c][DF][Gc])!ped-up! | %58
!ped! x2!ped-up!!ped! G/z/G/ z/!ped-up! | %59
!ped! G/z/!ped-up!!ped!F/ z/!ped-up!!ped! A/z/!ped-up!!ped!B/ z/!ped-up! | %60
!ped! c/z/c/z/c/ z/!ped-up!!ped! c/ z/!ped-up! | %61
!ped! G/z/G/ z/!ped-up!!ped! G/z/!ped-up!!ped!F/ z/!ped-up! | %62
!ped! A/z/!ped-up!!ped!B/ z/!ped-up!!ped! c/z/!ped-up!!ped!c/ z/!ped-up! | %63
!ped! ([^Ae]A!ped-up!!ped!e!ped-up!!ped!A)!ped-up! | %64
!ped! (.d.d)!ped-up!!ped! ([B,^DA]!ped-up!!ped![=DF=c])!ped-up! | %65
!ped! ([^Ae]A!ped-up!!ped!e!ped-up!!ped!A)!ped-up! | %66
!ped! (.d.d)!ped-up!!ped! ([B,^DA]!ped-up!!ped![=DF=c])!ped-up! | %67
!ped! (.d.d)!ped-up!!ped! ([B,^DA]!ped-up!!ped![=DF=c])!ped-up! | %68
!ped! (5:4:5x/16x/16x/16x/16x/16 [EGd]2!ped-up!!ped! x/4 !arpeggio![B,^DA]2!ped-up! | %69
!ped! (5:4:5x/16x/16x/16x/16x/16 [G,^B,F]2!ped-up!!ped![K:bass] x/16x/16x/16x/16 !arpeggio![^D,^^F,C]2!ped-up! || %70
[K:F#] z ([B,,F,][A,,E,][^C,G,]) | z ([B,,F,][A,,E,][C,G,]) | z!>(! ([B,,F,]!>)! [A,,E,]2) | %73
 z ([G,,D,]2 C,) |!ped! z!>(! ([B,,F,]!ped-up!!>)!!ped! [A,,E,]2)!ped-up! | %75
!ped! z ([G,,D,]2!ped-up!!ped! C,)!ped-up! | %76
!ped! z!>(! ([G,,,G,,]2!ped-up!!>)!!ped! [A,,,A,,])!ped-up! | %77
!ped! !tenuto!D2!ped-up!!ped! !tenuto!C2!ped-up! | %78
!ped! !tenuto!D2!ped-up!!ped! !tenuto!C2!ped-up! | %79
!ped! !tenuto!D2!ped-up!!ped! !tenuto!C2!ped-up! | %80
!ped! x[K:treble]"^mg." [Bc][K:bass]!fermata![E,B,C]!ped-up!!ped!!>(! x!ped-up! | %81
!pp!!ped! z!>)![K:treble] !tenuto![Bc]2!ped-up![K:bass]!>(!!ped! x!>)!!ped-up! | %82
!pp!!ped! z[K:treble] !tenuto![Bc]2!ped-up![K:bass]!ped! x!ped-up! | x4 | %84
 z[K:treble] [Ac]2[K:bass] x |!ped! x[K:treble] !arpeggio!A2!ped-up![K:bass]!ped! x!ped-up! | %86
!ped! x[K:treble] !arpeggio!!fermata!a3!ped-up! |] %87
[K:Db][M:3/8]!ped! (.[DA].[EB]!ped-up!!ped!.[Fc])!ped-up! | %88
!ped! (.[GB]!ped-up!!ped!.[Fc]!ped-up!!ped!.[EB])!ped-up! | %89
!ped! (.[DFA]!ped-up!!ped!.[CFA]!ped-up!!ped!.[B,FA])!ped-up! | %90
[K:bass]!ped! [F,CE]!ped-up!!ped! [A,CE]2!ped-up! | !tenuto!.B,,,2!ped! z!ped-up! | %92
!ped! !tenuto![D,,A,,]2!ped-up!!ped! [F,,C,]!ped-up! |!ped! ([B,,A,]2!ped-up!!ped! [E,D])!ped-up! | %94
!ped! [F,,C,]3!ped-up!!ped!!ped-up! |!ped! ([B,,A,]2!ped-up!!ped! [E,D])!ped-up! | %96
!ped! ([A,,=G,]2!ped-up!!ped! [D,C])!ped-up! |!ped! =G,,!ped-up!!ped! [C,=G,]2!ped-up! | %98
 z .C,,.F,,, :|[K:treble]!ped! x/ ([FAe]3!ped-up!!ped! | [FB=d]3!ped-up!!ped! | %101
 [EAc]3)!ped-up!!ped! | ([DGB]!ped-up!!ped![CF=A-]!ped-up!!ped![=A,EA])!ped-up!!ped! | %103
!<(! [B,=D_A]3!ped-up![K:bass]!ped! |[K:treble]!p! [_CE]3!<)!!ped-up!!ped! | %105
!<(! [B,=D_A]3!ped-up![K:bass]!ped! |[K:treble]!p! [_CE]3!<)!!ped-up!!ped!!ped-up! | %107
 [B,=DA]3[K:bass] | (_CB,A,)!ped! |[I:staff -1] ([B,F][I:staff +1]ED!ped-up! | %110
!ped! B,DE)!ped-up!!ped! | (FED)!ped-up!!ped! | (B,D!ped-up!"^en  dehors"!ped!E)!ped-up! | %113
!ped!!<(! (A,,/B,,<C,D,/!ped-up! |!ped! E,>F,A,/C/!ped-up!!ped! | %115
 B,/A,/!ped!F,/=D,/!<)!.B,,)!ped-up! |!p!!ped! (A,/B,<!ped-up!CD/ | %117
[K:treble]!ped! E>FA/c/!ped-up!!ped!!ped-up! | B/A/!ped!!ped-up!F/=D/B,)!ped-up!!ped! | %119
[K:bass] z[K:treble] !arpeggio![F,A,DF]!arpeggio![A,DFA]!ped-up!!ped! | %120
 !arpeggio![DFAd]!ped!!arpeggio![FAdf]!ped-up!!ped! z | %121
[K:bass]!ped! z[K:treble] !arpeggio![F,A,CF]!arpeggio![A,CFA] | %122
 !arpeggio![CFAc]!arpeggio![FAcf] z | !arpeggio![Acfa]z!arpeggio![FAcf] | %124
 z !arpeggio![CFAc] z!ped-up! || %125
[K:A][K:bass]!p!"^en dehors et expressif"!ped! z[K:treble] (!arpeggio![DEGc]2 | %126
 !arpeggio![^A,CEG]2[K:bass] E,,!ped-up!!ped! |[K:treble] EF!ped-up!!ped! G- | %128
[A,EG]!ped-up!!ped! !arpeggio![DEGc]2!ped-up!!ped! | !arpeggio![G^Ace]3-) | z3!ped-up! | %131
[K:bass]!ped! (CB,G,)!ped-up! |!ped!!>(! (C!>)! G,2)!ped-up! |!ped! (CB,G,)!ped-up! | %134
!>(!!ped! (C!>)! G,2)!ped-up! |!ped! (CB,G,)!ped-up! |!ped! (CB,G,)!ped-up! | %137
!ped! (CB,G,)!ped-up! |!ped! (CB,!pp!G,)!ped-up! || %139
[K:Db][K:treble]!ped! ([DA][_C_F][A,D])!ped-up! |!ped! ([DA][_C_F][A,D])!ped-up! | %141
!ped! (.[DFA].[CFA].[B,FA])!ped-up! |[K:bass] [F,CE]!ped! [A,CE]2!ped-up! | %143
!ped! !tenuto!.B,,,2!ped-up! z |!ped! [D,,A,,]3!ped-up!!ped!!ped-up! | %145
!ped! ([G,,D,]2!ped-up!!ped! [B,,A,])!ped-up! |!ped! [D,,A,,]3!ped-up!!ped!!ped-up! | %147
!ped! ([G,,D,]2!ped-up!!ped! [B,,A,])!ped-up! |!ped! ([A,,G,]2!ped-up!!ped! [B,,A,])!ped-up! | %149
!ped! [G,,D,]!ped-up!!ped! [A,,G,]2!ped-up! | z .A,,.D,, || %151
[K:E][K:treble]!ped! x/ [CEB]3!ped-up!!ped! | [CF^A]3!ped-up!!ped! | [CF^A]3!ped-up!!ped! | %154
 [G,=D^E]2!ped-up![K:bass]!ped! C,!ped-up! |!ped! (F,,C,C)!ped-up! | %156
[K:treble]!ped! (!>!c[K:bass]CC,)!ped-up! |!ped! (F,,C,C)!ped-up! | %158
[K:treble]!ped! (!>!c[K:bass]CC,)!ped-up! |!ped! (F,,C,C)!ped-up! | %160
[K:treble]!ped! (!>!c[K:bass]CC,)!ped-up! |!ped! (F,,C,C)!ped-up! | %162
[K:treble]!ped! (!>!c[K:bass]CC, | F,,-C,,-F,,,-) |!pp! !fermata!z3!ped-up!!8vb(!!ped!!8vb)! || %165
[K:Db]!<(! x [DF]2!ped-up! |!ped! [DF]2 [A,CEA]!ped-up!!ped!!<)! | ([DEGB]2 [CDFA] | %168
 [B,DEG] !fermata![A,DFA]2)!ped-up! |][K:A][M:3/4][K:treble]!ped! !>!C2 !>!c2 x2!ped-up! | %170
!ped! !>!C2 !>!c2 x2!ped-up! |!ped! !>!C2 !>!c2 x2!ped-up! | %172
!f!!ped! (C/^D/F/A/ c/^d/c/d/ c/A/F/D/)!ped-up! |!ped! (C/^D/F/ z/ z/ ^d/c/d/ c/A/F/D/)!ped-up! | %174
!ped! (C/^D/A/) z/ z/ (F/B/) z/ z/ (A/F/D/)!ped-up! |!ped! (C/^D/F/A/ c/^d/c/d/ c/A/F/D/)!ped-up! | %176
!ped! (C/^D/F/A/ c/^d/c/d/ c/A/F/D/)!ped-up! |!ped! (C/^D/F/A/ c/^d/c/d/ c/d/B/c/)!ped-up! | %178
!ped! !>!g2!ped!!ped-up! x4!ped-up!!ped!!ped-up! |!ped! x6!ped-up!!ped!!ped-up!!ped!!ped-up! | %180
[K:bass]!ped! (^^C,2 ^D,2 E,2!ped-up! |!ped! ^E,2 =E,2 ^D,2)!ped-up! | %182
[K:bass]!ped! (^^C,2 ^D,2 E,2!ped-up! |!ped! ^E,2 =E,2 ^D,2)!ped-up! | %184
!ped! (^^C,2 ^D,2 E,2!ped-up! |!ped! ^E,2 F,2 =G,2)!ped-up!!ped!!ped-up! | %186
 C2[K:treble] B/d/f/d/ F/d/f/d/ |!ped! F/d/f/ z/ A/d/f/d/ B/d/f/d/!ped-up! | %188
!ped! (c/d/f/ z/ B/d/f/ z/ F/d/f/d/!ped-up! |!ped! F/d/f/ z/ A/d/f/d/ B/d/f/d/)!ped-up! | %190
!ped! (c/d/f/d/ B/d/f/d/ F/d/f/d/!ped-up! |!ped! F/d/f/d/ A/d/f/d/ z !>!e/!>!f/)!ped-up! | %192
!ped! !>!c'2!ped-up!!ped! !>!f2!ped-up!!ped! !>!c2!ped-up! | %193
!ped! !>!c2!ped-up!!ped! !>!F2!ped-up!!ped! !>!C2!ped-up! |[K:bass]!ped! (^^F,2 G,2 A,2!ped-up! | %195
!ped! ^A,2 =A,2 G,2)!ped-up! |!ped! (^^F,2 G,2 A,2!ped-up! |!ped! ^A,2 =A,2 G,2)!ped-up! | %198
!ped! (^^F,2 G,2 A,2!ped-up! |!ped! ^A,2 B,2 ^B,2)!ped-up! |!ped! ^D2 C2 ^B,2!ped-up! | %201
[K:treble]!ped! (3(B,C^D A4)!ped-up! |!ped! E,6!ped-up! |!ped! z6!ped-up! | %204
"^sans            ralentir" z6 || %205
[M:5/4]!ped! z2!>(! ([Gd^e]2!>)! [Ad^f]2)!ped-up!!ped! z2 !>![F=cd]2 | %206
!ped! z2!>(! ([Gd^e]2!>)! [Ad^f]2)!ped-up!!ped! z2 !>![F=cd]2!ped-up! | %207
!ped! z2!>(! ([Gd^e]2!>)! [Ad^f]2)!ped-up!!ped! z2 !>![F=cd]2!ped-up! | %208
[K:bass]!ped! x2[K:treble]!>(! ([^DF^B]2!>)! [EAc]2)[K:bass]!ped-up!!ped! x2[K:treble] !>![C=GA]2!ped-up! | %209
[K:bass]!ped! x2[K:treble]!>(! ([^DF^B]2!>)! [EAc]2)[K:bass]!ped-up!!ped! x2[K:treble] !>![C=GA]2!ped-up! | %210
[K:bass]!ped! x2[K:treble]!>(! ([^DF^B]2!>)! [EAc]2)[K:bass]!ped-up!!ped! x2[K:treble] !>![C=GA]2!ped-up! | %211
"^subito"!ped! (G,/^B,/^D/G/)!ped! x2!ped-up!!ped! x2!ped-up!!ped! (F,/C/E/^A/)!ped-up!!ped! x2!ped-up! || %212
[M:4/4]!ped! (G,/^B,/^D/G/)!ped-up!!ped! x2!ped-up!!ped! (C/E/G/c/)!ped-up!!ped! x2 || x2!ped-up! %213
[M:5/4]!ped! (G,/^B,/^D/G/)!ped! x2!ped-up!!ped! x2!ped-up!!ped! (F,/C/E/^A/)!ped-up!!ped! x2 || %214
[M:4/4]!ped! (G,/^B,/^D/G/)!ped-up!!ped! x2!ped-up!!ped! (C/E/G/c/)!ped-up!!ped! x2 || x2!ped-up! %215
[M:3/4]!ped! (C/E/G/c/) z2 z/ (E/G/c/) | x2!ped-up!!ped! z2 z/ (E/G/c/) z2!ped-up! | %217
!ped! (B,/E/G/c/) z2 z/ (E/G/c/)!ped-up! |!ped! z2 z/ (E/G/c/) z2!ped-up! | %219
!ped! (^A,/E/G/^B/) z2 A,/(E/G/B/)!ped-up! |!ped! z2 ^A,/(E/G/^B/) z2!ped-up! |!ped! x6!ped-up! || %222
[M:5/4]!f!!ped! [Acea]2!ped-up!!ped! [=GBd=g]2!ped-up!!ped! [=FA=c=f]2!ped-up!!ped! [_EG_B_e]2!ped-up!!ped! [_DF_A_d]2 | %223
!ped! [A,CEA]2!ped-up!!ped! [=G,B,D=G]2!ped-up!!ped! [=F,A,=C=F]2[K:bass]!ped-up!!ped! [_E,G,_B,_E]2!ped-up!!ped! [_D,F,_A,_D]2!ped-up! || %224
[M:3/4]!mf!!ped!!>(! [A,,E,A,]2!ped-up!!ped! [=G,,D,=G,]2!ped-up!!ped! [=F,,^B,,=F,]2 | x4!ped-up! %225
!ped! [A,,E,A,]2!ped-up!!ped! [=G,,D,=G,]2!ped-up!!ped! [=F,,^B,,=F,]2!ped-up! | %226
!ped! [A,,E,A,]2!ped-up!!ped! [=G,,D,=G,]2!ped-up!!ped! [=F,,^B,,=F,]2!ped-up! | %227
!ped! [A,,E,A,]2!ped-up!!ped! [=G,,D,=G,]2!ped-up!!ped! [=F,,^B,,=F,]2!ped-up!!>)! || %228
!8vb(!!ped! !>!A,,,,6!ped-up!!8vb)! |[K:treble]!ped! A2 =G2 E2!ped-up! |!ped! A2 =G2 E2!ped-up! | %231
!ped! A2 =G2 E2!ped-up! |!pp!!ped! (A/c/e/c/) (=G/c/e/c/) (E/c/e/c/)!ped-up! | %233
!ped! (A/c/e/) z/ (=G/c/e/c/) (E/c/e/c/)!ped-up! | %234
!ped! (A/c/e/) z/ (=G/c/e/) z/ (E/c/e/c/)!ped-up! | %235
!ped! (A/c/e/c/) (=G/c/e/c/) (E/c/e/c/)!ped-up! |!ped! (A/c/e/c/) (=G/c/e/c/) (E/c/e/c/)!ped-up! | %237
!ped! A2 =G2 E2!ped-up! |!ped! A2 =G2 E2!ped-up! | %239
!ped! (3[F,^A,]CE (3^Ace!8va(! (3^ac'e'!ped-up!!8va)! |!ff!!ped!!8va(! a'2 =g'2 e'2!ped-up! | %241
!ped! [^d^^f^a^d']2 c'2 a2!ped-up!!8va)! |!ped! a2 =g2 e2!ped-up! | %243
!ped! [^D^^F^A^d]2 c2 A2!ped-up! |!ped! x6!ped-up! |!ped! x6!ped-up! |!ped! z6!ped-up! | %247
!ped! z6!ped-up! |!ped! z6!ped-up! |!ped! z6!ped-up! |!ped! z2 z2 z z/!pp!"_marqué" C/!ped-up! | %251
!ped! F6-!ped-up! |!ped! F4 z z/ ^A,/!ped-up! |!ped! E6-!ped-up! |!ped! E2 z z/ F,/ C2-!ped-up! | %255
!ped! Cz/^A,/ E4-!ped-up! |!ped! E2 z z/ C/ F2-!ped-up! |!ped! F6-!ped-up! | %258
!ped! F4- FE/F/!ped-up! |!ped! !>!c6-!ped-up! |!ped! c6!ped-up! |!ped! !>!c6-!ped-up! | %262
!ped! c2 c4!ped-up! ||[M:5/4]!ped! x (!>!B2 A2 E2!ped-up! G2 A2)!ped-up!!ped! | %264
 (!>!B2 A2 E2 G2 A2)!ped-up!!ped! ||[M:2/4]!>(! (!>!c2!>)! F2)!ped-up!!ped! || %266
[M:5/4] (!>!B2 A2 E2 F2 =G2)!ped-up!!ped! ||[M:2/4]!>(! (!>!B2!>)! E2) || %268
[M:3/4]"^marqué et expresif"!p!!ped!"_cresc." (A2 =G2!ped-up! =F2 |!ped! E2 D=C E2)!ped-up! | %270
!ped! (D2 _B,2 (3(A,DB,)!ped-up! |[K:bass]!mp!!ped! A,2 =G,2 D,2)!ped-up! |!ped! (=E,6!ped-up! | %273
!ped! =F,6!ped-up! |!pp!!ped! (^F,2) E,/G,/B,/G,/ B,,/)G,/B,/G,/!ped-up! | %275
!ped! (F,/G,/B,/ z/ E,/G,/B,/G,/ B,,/)G,/B,/G,/!ped-up! | %276
!ped! (F,/G,/B,/ z/ E,/G,/B,/G,/ B,,/)G,/B,/G,/!ped-up! | %277
!ped!!<(! (F,/G,/B,/G,/ E,/G,/B,/G,/ B,,/)G,/B,/G,/!ped-up! | %278
!ped! (F,/G,/B,/G,/ E,/G,/B,/G,/ B,,/)G,/B,/G,/!ped-up!!<)! |!mf!!ped! z2 (!>!E,2 F,2)!ped-up! | %280
!ped! !>![EF]4 z2!ped-up! |!p!!ped! z2 E,/G,/B,/G,/ B,,/G,/B,/G,/!ped-up! | %282
!ped! (F,/G,/B,/G,/ E,/G,/B,/G,/ B,,/)G,/B,/G,/!ped-up! | %283
!ped! (F,/G,/B,/G,/ E,/G,/B,/G,/ B,,/)G,/B,/G,/!ped-up! | %284
!ped!!<(! (F,/G,/B,/G,/ E,/G,/B,/G,/ B,,/)G,/B,/G,/!ped-up! | %285
!ped! (F,/G,/B,/G,/ E,/G,/B,/G,/ B,,/)G,/B,/G,/!ped-up!!<)! |!ped! z2 (!>![E,E]2 F,2)!ped-up! | %287
[K:treble]!ped! !>![ef]4 z2!ped-up! |[K:bass]!pp!!ped! ^D2 C/^E/C/E/ G,/E/G,/E/!ped-up! | %289
!ped! (^D/F/D/ z/ C/F/C/F/ G,/)F/G,/F/!ped-up! |!ped! (^D/F/D/ z/ C/F/C/ z/ G,/)C/D/F/!ped-up! | %291
!ped! (^D/^E/D/E/ C/E/C/E/ G,/)E/G,/E/!ped-up! |!ped! (^D/^E/D/E/ C/E/C/E/ G,/)E/ z!ped-up! | %293
!ped! C,,2 C,2 C2!ped-up! |[K:treble]!ped! !>![^B=d]6!ped-up! | %295
[K:bass]!p!!ped! z2[K:treble] F/^A/F/A/ C/A/C/A/!ped-up! | %296
!ped! G/^A/G/ z/ F/A/F/A/ C/A/C/A/!ped-up! |!ped! G/^A/G/ z/ F/A/F/ z/ C/A/C/A/!ped-up! | %298
!ped! G/^A/G/ z/ F/A/F/ z/ C/A/ z!ped-up! |[K:bass]!ped! C,2 C2 z2!ped-up! | %300
[K:treble]!ped! x2 B/^d/B/d/ F/d/ z!ped-up! |!ped! C2 c2 (c/c'/) z!ped-up! | %302
!ped! C2 c2 (c/c'/) z!ped-up! |!ped! !>!d'2 !>!c'2 g2!ped-up! |!ped! d2 c2 G2!ped-up! | %305
!ped! d2 c2 G2!ped-up! |!ped! d2 c2 G2!ped-up! |!ped! d2 c2 G2!ped-up! || %308
[M:5/4]!pp!!ped! [^EG^^c]6!ped-up!!ped! [FB^d]4 |!pp!!ped! [^EG^^c]6!ped-up!!ped! [FB^d]4!ped-up! | %310
!pp!!ped! [^EG^^c]6!ped-up!!ped! [FB^d]4!ped-up! | %311
[K:bass]!ped! x2[K:treble] ([^B,^D^^G]2 [CF^A]2)[K:bass]!ped-up!!ped! x2[K:treble] [^A,EF]2!ped-up! | %312
[K:bass]!ped! x2[K:treble] ([^B,^D^^G]2 [CF^A]2)[K:bass]!ped-up!!ped! x2[K:treble] [^A,EF]2!ped-up! | %313
[K:bass]!ped! x2[K:treble] ([^B,^D^^G]2 [CF^A]2)[K:bass]!ped-up!!ped! x2[K:treble] [^A,EF]2!ped-up! || %314
[K:C]"^subito"!ped! (F,/A,/C/F/)!ped! x2!ped-up!!ped! x2!ped-up!!ped! (_E,/_B,/_D/G/)!ped-up!!ped! x2!ped-up! || %315
[M:4/4]!ped! (F,/A,/C/F/)!ped-up!!ped! x2!ped-up!!ped! (_B,/_D/F/_B/)!ped-up!!ped! x2 || x2!ped-up! %316
[M:5/4]!ped! (F,/A,/C/F/)!ped! x2!ped-up!!ped! x2!ped-up!!ped! (_E,/_B,/_D/G/)!ped-up!!ped! x2 || %317
[M:4/4]!ped! (F,/A,/C/F/)!ped-up!!ped! x2!ped-up!!ped! (_B,/_D/F/_B/)!ped-up!!ped! x2 || x2!ped-up! %318
[M:3/4]!ped! (_B,/_D/F/_B/) z2 z/ (D/F/B/) | x2!ped-up!!ped! z2 z/ (_D/F/_B/) z2!ped-up! | %320
!ped! (_A,/_D/F/_B/) z2 z/ (D/F/B/)!ped-up! |!ped! z2 z/ (_D/F/_B/) z2!ped-up! || %322
[K:F#]!ped! (=G,/C/E/=A/) z2 (G,/C/E/A/)!ped-up! |!ped! z2 (=G,/C/E/=A/) z2!ped-up! | %324
!ped! x6!ped-up! || %325
[M:5/4]!f!!ped! [FAcf]2!ped-up!!ped! [=EGB=e]2!ped-up!!ped! [=DF=A=d]2!ped-up!!ped! [=CE=G=c]2!ped-up!!ped! [A,^^C^E^A]2 | %326
!ped! [F,A,CF]2!ped-up!!ped! [=E,G,B,=E]2!ped-up!!ped! [=D,F,=A,=D]2[K:bass]!ped-up!!ped! [=C,E,=G,=C]2!ped-up!!ped! [A,,^^C,^E,^A,]2!ped-up! || %327
[M:3/4]!mf!!ped! [F,,C,F,]2!ped-up!!ped! [=E,,B,,=E,]2!ped-up!!ped! [=D,,=A,,=D,]2 | x4!ped-up! %328
!ped! [F,,C,F,]2!ped-up!!ped! [=E,,B,,=E,]2!ped-up!!ped! [=D,,=A,,=D,]2!ped-up! | %329
!ped! [F,,C,F,]2!ped-up!!ped! [=E,,B,,=E,]2!ped-up!!ped! [=D,,=A,,=D,]2!ped-up! | %330
"^Très marqué"!ped! (!>![F,,C,F,]2 C,2)!ped-up!!ped! (!>![=A,,=E,=A,]2!ped-up! | %331
 =E,2)!ped-up!!ped! (!>![=C,=G,=C]2 [_E,_B,]2) | %332
!ped! [F,CF]2!ped-up!!ped! [=E,B,=E]2!ped-up!!ped! [=D,=A,=D]2!ped-up! | %333
!ped! (!>![F,CF]2 C2)[K:treble]!ped-up!!ped! (!>![=A,=E=A]2!ped-up! | %334
 =E2)!ped-up!!ped! (!>![=C=G=c]2 [_E_B]2) | %335
!ped! [Fcf]2!ped-up!!ped! [=EB=e]2!ped-up!!ped! [=D=A=d]2!ped-up! | %336
!ped! [Fcf]2!ped-up!!ped! [=EB=e]2!ped-up!!ped! [=D=A=d]2!ped-up! | %337
!ped! [Fcf]2!ped-up!!ped! [=EB=e]2!ped-up!!ped! [=D=A=d]2!ped-up! | %338
!ped! [Fcf]2!ped-up!!ped! [=EB=e]2!ped-up!!ped! [=D=A=d]2!ped-up! |!ped! [Fcf]2 z2 z2!ped-up! x2 | %340
 !>!f'2- z2 z2 |] %341
V:4
 x (F C2- | CB,/C/ DE/F/ | GEG/) z/ F |: (C2- CB,/C/ | DE/F/ G)F | F4 | [E^G]2 x2 | F4 | %8
 [E^G]2 x2 | [E^G]2 x2 | x5/2[K:bass] x2 |[K:treble] x/4 AG[K:bass] x/8x/8 !arpeggio![E,D]2 | x4 | %13
 x4 | x4 | x4 | x4 | x4 | x4 | (F[F,^D]E[F,C]) | (F[F,^D]E[F,C]) | (F[F,^D]E[F,C]) | x4 | %23
 [=G,,D,]3[K:treble][K:bass] ([A,,E,] | [=G,,D,]3)[K:treble][K:bass] [A,,E,] |1 x2 [C,,^G,,]2 | %26
 x4 | x3[K:treble] F :|[K:bass] .[=G,,D,]([G,,C,-] [F,,C,]2)[K:treble] | %29
 x[K:bass] ([=G,,C,-] [F,,C,]2)[K:treble] | x4 | x4 | x4 | x9/2 | z (B,- [E,B,]2) | x4 | x4 | x4 | %38
 x4 | x4 | !>![A=g]2 E2 |[K:bass] !>![A,=G]2 E,2 | x4 | x4 | x4 | x4 | x4 | z ([A,,D,][E,,A,,]) z | %48
 z ([A,,D,][E,,A,,]) z | z ([A,,D,][E,,A,,]) z | z ([A,,D,][E,,A,,]) z | x4 | x4 | x4 | %54
[K:treble] x4 | x4 | x4 | x4 | (!>![^CG]F C2- | CB,/C/ DE/F/ | GEG/) z/ (!>!F | C2- CB,/C/ | %62
 DE/F/ G)F | F4 | [E^G]2 x2 | F4 | [E^G]2 x2 | [E^G]2 x2 | x9/2 | x9/4[K:bass] x9/4 ||[K:F#] x4 | %71
 x4 | x4 | x4 | x4 | x4 | x4 | (D[D,^B,]C[D,A,]) | (D[D,^B,]C[D,A,]) | (D[D,^B,]C[D,A,]) | %80
 !fermata![C,,G,,]3[K:treble][K:bass] ([F,,C,] | [=E,,B,,]3)[K:treble][K:bass] ([F,,C,] | %82
 [=E,,B,,]3)[K:treble][K:bass] ([F,,C,] | [=E,,B,,]2 [=D,,=A,,]2 | %84
 [F,,,C,,]3)[K:treble][K:bass] ([=A,,=E,] | [F,,C,]3)[K:treble][K:bass] ([=A,=E] | %86
 [F,C]4)[K:treble] |][K:Db][M:3/8] x3 | x3 | x3 |[K:bass] z2 !tenuto!.F,, | x3 | x3 | x3 | x3 | %95
 x3 | x3 | x3 | x3 :|[K:treble] x/ z2 !>!F,- | F,2 !>!F- | F2 !>!F,- | x3 | z[K:bass] .F,,.B,, | %104
[K:treble] z!>(! !>![F,F]2!>)! | z[K:bass] .F,,.B,, |[K:treble] z!>(! !>![F,F]2!>)! | %107
 z[K:bass] .F,,.B,, | (F,2 B,,) | !arpeggio![E,,B,,G,]3- | x2 x3/4 x/8x/8 | %111
 !arpeggio![E,B,]2 x3/4 x/8x/8 | !arpeggio![A,,E,]2 C | D,,2 z | F,,2 z |{/B,,} x3 | D,2 z | %117
[K:treble] F,2 z |{/B,} x3 |[K:bass] !>![D,,A,,]3-[K:treble] | x3/4 (3x/8x/8x/8 x2 | %121
[K:bass] !>![B,,,-B,,]3[K:treble] | x3/4 (3x/8x/8x/8 x x3/4 (3x/8x/8x/8 | x x3/4 (3x/8x/8x/8 x | %124
 x3/4 (3x/8x/8x/8 x2 ||[K:A][K:bass] E,,3[K:treble] | x2[K:bass] x3/4 x/8x/8 | %127
[K:treble] !arpeggio![G,D]2 !arpeggio![^A,E]- | x3/4 (3x/8x/8x/8 x x3/4 (3x/8x/8x/8 | x3 | x3 | %131
[K:bass] x3 | z2 E,,- | x3 | z2 E,,- | x3 | x3 | x3 | x3 ||[K:Db][K:treble] x3 | x3 | x3 | %142
[K:bass] z2 !tenuto!.F,, | x3 | x3 | x3 | x3 | x3 | x3 | x3 | x3 || %151
[K:E][K:treble] x/ z2 !tenuto!C, | z2 !tenuto!C, | z2 !tenuto!C, | x2[K:bass] x | x3 | %156
[K:treble] x[K:bass] x2 | x3 |[K:treble] x[K:bass] x2 | x3 |[K:treble] x[K:bass] x2 | x3 | %162
[K:treble] x[K:bass] x2 | x3 | x2!f!!8vb(! !>!_D,,,-!8vb)! ||[K:Db] x2 [B,,F,]- |[B,,F,] [F,,C,]2 | %167
 [D,,A,,]3- | [D,,A,,]2!p! !fermata![D,,A,,] |][K:A][M:3/4][K:treble] x6 | x6 | x6 | x6 | x6 | x6 | %175
 x6 | x6 | x6 | x6 | x6 |[K:bass] F,,6 | F,,6 |[K:bass] F,,6 | F,,6 | F,,6 | F,,6 | %186
 !arpeggio![B,,F,]2[K:treble] !>!B2 !>!F2 | !>!F2 !>!A2 !>!B2 | !>!c2 !>!B2 !>!F2 | %189
 !>!F2 !>!A2 !>!B2 | !>!c2 !>!B2 !>!F2 | !>!F2 !>!A2 !>!B2 | x6 | x6 |[K:bass] G,,6 | G,,6 | G,,6 | %197
 G,,6 | G,,6 | G,,6 | C,6 |[K:treble] B,6 | x6 | x6 | x6 ||[M:5/4] !tenuto!E6 !tenuto!D4 | %206
 !tenuto!E6 !tenuto!D4 | !tenuto!E6 !tenuto!D4 | %208
[K:bass] [B,,F,]6[K:treble][K:bass] [A,,E,]4[K:treble] | %209
[K:bass] [B,,F,]6[K:treble][K:bass] [A,,E,]4[K:treble] | %210
[K:bass] [B,,F,]6[K:treble][K:bass] [A,,E,]4[K:treble] | x10 ||[M:4/4] x8 ||[M:5/4] x10 || %214
[M:4/4] x8 ||[M:3/4] !>!C6 | ^B,6 | !>!=B,6 | ^A,6 | x6 | x6 | x6 ||[M:5/4] x10 | x6[K:bass] x4 || %224
[M:3/4] x6 | x6 | x6 | x6 ||!8vb(! x6!8vb)! |[K:treble] x6 | x6 | x6 | A2 =G2 E2 | A2 =G2 E2 | %234
 A2 =G2 E2 | A2 =G2 E2 | A2 =G2 E2 | x6 | x6 | x4!8va(! x2!8va)! |!8va(! x6 | x6!8va)! | x6 | x6 | %244
 x6 | x6 | x6 | x6 | x6 | x6 | x6 | x6 | x6 | x6 | x6 | x6 | x6 | x6 | x6 | x6 | x6 | x6 | x6 || %263
[M:5/4] x/x/ !arpeggio![B,F]2 x4 A,2 x7/4 x/8x/8 | !arpeggio![B,F]2 x4 A,2 x7/4 x/8x/8 || %265
[M:2/4] !arpeggio![B,F]2 x7/4 x/8x/8 ||[M:5/4] !arpeggio![A,E]2 x4 A,2 x7/4 x/8x/8 || %267
[M:2/4] !arpeggio![A,E]2 x2 ||[M:3/4] [=G,D]2 x4 | x6 | x6 |[K:bass] x6 | =G,,6- | G,,6 | %274
 [E,,=B,,]2 E,2 B,,2 | F,2 E,2 B,,2 | F,2 E,2 B,,2 | F,2 E,2 B,,2 | F,2 E,2 B,,2 | [D,,A,,]6 | x6 | %281
 [E,,B,,F,]2 E,2 B,,2 | F,2 E,2 B,,2 | F,2 E,2 B,,2 | F,2 E,2 B,,2 | F,2 E,2 B,,2 | [D,,A,,]6 | %287
[K:treble] x6 |[K:bass] [C,G,]2 C2 G,2 | ^D2 C2 G,2 | ^D2 C2 G,2 | ^D2 C2 G,2 | ^D2 C2 G, x | %293
 C,,6 |[K:treble] x6 |[K:bass] C,6[K:treble] | G2 F2 C2 | (G2 F2 C2) | (G2 F2 C2) |[K:bass] C,6 | %300
[K:treble] (c2 B2 F2) | C6 | C6 | x6 | x6 | x6 | x6 | x6 ||[M:5/4] z2 !courtesy!^C4 z2 B,2 | %309
 z2 !courtesy!^C4 z2 B,2 | z2 !courtesy!^C4 z2 B,2 | %311
[K:bass] [G,,^D,]6[K:treble][K:bass] [F,,C,]4[K:treble] | %312
[K:bass] [G,,^D,]6[K:treble][K:bass] [F,,C,]4[K:treble] | %313
[K:bass] [G,,^D,]6[K:treble][K:bass] [F,,C,]4[K:treble] ||[K:C] x10 ||[M:4/4] x8 ||[M:5/4] x10 || %317
[M:4/4] x8 ||[M:3/4] !>!_B,6 | A,6 | !>!_A,6 | G,6 ||[K:F#] x6 | x6 | x6 ||[M:5/4] x10 | %326
 x6[K:bass] x4 ||[M:3/4] x6 | x6 | x6 | x6 | x6 | x6 | x4[K:treble] x2 | x6 | x6 | x6 | x6 | x6 | %339
 x8 | c'2- x4 |] %341
V:5
 x4 | x4 | x4 |: x4 | x4 | x4 | x4 | x4 | x4 | x4 | x/4 x2 (5:4:5x/16x/16x/16x/16x/16 x2 | x9/2 | %12
 x4 | x4 | x4 | x4 | x4 | x4 | x4 | x4 | x4 | x4 | x4 | x4 | x4 |1 x2[K:bass] x2 | x4 | %27
 x3[K:treble] x :| x4 | x4 | x4 | x4 | x4 | x9/2 | x4 | x4 |!8va(! x4 | x4 | x4 | x4 | %40
 x2!8va)! x2 | x4 | x4 | x4 | x4 | x4 | x4 | x4 | x4 | x4 | x4 | x4 | x4 | x4 | x4 | x4 | x4 | x4 | %58
 x4 | x4 | x4 | x4 | x4 | x4 | x4 | x4 | x4 | x4 | x9/2 | x9/2 ||[K:F#] x4 | x4 | x4 | x4 | x4 | %75
 x4 |[K:bass] x4 |[K:treble] x4 | x4 | x4 |[K:bass] x3[K:treble] x | x4 | x4 | x4 | x4 | %85
 x3/4 (3x/8x/8x/8 x x2 | x3/4!8va(! x13/4!8va)! |][K:Db][M:3/8] x3 | x3 | x3 | x3 | x3 | x3 | x3 | %94
 x3 | x3 | x3 | x3 | x3 :| x/ x2 x3/4 x/8x/8 | x3 | x3 | x3 | x2 x3/4 x/8x/8 | %104
 x2 x3/4 (3x/8x/8x/8 | x2 x3/4 x/8x/8 | x3 | x3 | x3 | x3 | x3 | x3 | x3 | x3 | x3 | x3 | x3 | x3 | %118
 x3 | x3 | x3 |!8va(! x3 | x3 | x3 | x3!8va)! ||[K:A]!8va(! x3 | x3 | x3 | x3 | x3!8va)! | x3 | %131
 x3 | x3 | x3 | x3 | x3 | x3 | x3 | x3 ||[K:Db] x3 | x3 | x3 | x3 | x3 | x3 | x3 | x3 | x3 | x3 | %149
 x3 | x3 ||[K:E] x7/2 | x3 | x3 | x3 | x3 | x3 | x3 | x3 | x3 | x3 | x3 |[K:bass] x3 | x3 | x3 || %165
[K:Db][K:treble] x3 | x3 | x3 | x3 |][K:A][M:3/4] x6 | x6 | x6 | x6 | x6 | x6 | x6 | x6 | x6 | x6 | %179
 x6 | x6 | x6 | x6 | x6 | x6 | x6 | x6 | x6 | x6 | x6 | x6 | x6 |!8va(! x2!8va)! x4 | x6 | x6 | %195
 x6 | x6 | x6 | x6 | x6 | x6 | x6 | x6 | x6 | x6 ||[M:5/4] x10 | x10 | x10 | x10 | x10 | x10 | %211
 x10 ||[M:4/4] x8 ||[M:5/4] x10 ||[M:4/4] x8 ||[M:3/4] x6 | x6 | x6 | x6 | x6 | x6 | %221
 x7/3!8va(! x11/3!8va)! ||[M:5/4] x10 | x10 ||[M:3/4][K:bass] x6 | x6 | x6 | x6 ||[K:treble] x6 | %229
 x6 | x6 | x6 | x6 | x6 | x6 | x6 | x6 | x6- | x6 | x4!8va(! x2 | x6 | x6!8va)! | x6 | x6 | x6 | %245
 x6 | x6 | x6 | x6 | x6 | x6 | x6 | x6 | x6 | x6 | x6 | x6 | x6 | x6 | x6 | x6 | x6 | x6 || %263
[M:5/4] x11 | x10 ||[M:2/4] x4 ||[M:5/4] x10 ||[M:2/4] x4 ||[M:3/4] x6 | x6 | x6 |[K:bass] x6 | %272
 x6 | x6 | x6 | x6 | x6 | x6 | x6 | x6 | x6 |[K:treble] x6 | x6 | x6 | x6 | x6 | x6 | x6 | x6 | %289
 x6 | x6 | x6 | x6 | x6 | x6 | x6 | x6 | x6 | x6 | x6 | x6 | x6 |!8va(! x6 | x6!8va)! | x6 | x6 | %306
 x6 | x6 ||[M:5/4] x10 | x10 | x10 | x10 | x10 | x10 ||[K:C] x10 ||[M:4/4] x8 ||[M:5/4] x10 || %317
[M:4/4] x8 ||[M:3/4] x6 | x6 | x6 | x6 ||[K:F#] x6 | x6 | x7/3!8va(! x11/3!8va)! ||[M:5/4] x10 | %326
 x10 ||[M:3/4][K:bass] x6 | x6 | x6 | x4[K:treble] x2 | x6 | x6 | x6 | x6 | x6 | x6 | x6 | x6 | %339
 x8 | x6 |] %341
V:6
 x4 | x4 | x4 |: x4 | x4 | x4 | x4 | x4 | x4 | x4 | x5/2[K:bass] x2 |[K:treble] x9/4[K:bass] x9/4 | %12
 x4 | x4 | x4 | x4 | x4 | x4 | x4 | x4 | x4 | x4 | x4 | x[K:treble] x2[K:bass] x | %24
 x[K:treble] x2[K:bass] x |1 x4 | x4 | x3[K:treble] x :|[K:bass] x3[K:treble] x | %29
 x[K:bass] x2[K:treble] x | x4 | x4 | x4 | x9/2 | x4 | x4 | x4 | x4 | x4 | x4 | x4 |[K:bass] x4 | %42
 x4 | x4 | x4 | x4 | x4 | x4 | x4 | x4 | x4 | x4 | x4 | x4 |[K:treble] x4 | x4 | x4 | x4 | x4 | %59
 x4 | x4 | x4 | x4 | x4 | x4 | x4 | x4 | x4 | x9/2 | x9/4[K:bass] x9/4 ||[K:F#] x4 | x4 | x4 | x4 | %74
 x4 | x4 | x4 | x4 | x4 | x4 | x[K:treble] x[K:bass] x2 | x[K:treble] x2[K:bass] x | %82
 x[K:treble] x2[K:bass] x | x4 | x[K:treble] x2[K:bass] x | x[K:treble] x2[K:bass] x | %86
 x[K:treble] x3 |][K:Db][M:3/8] x3 | x3 | x3 |[K:bass] x3 | x3 | x3 | x3 | x3 | x3 | x3 | x3 | %98
 x3 :|[K:treble] x7/2 | x3 | x3 | x3 | x[K:bass] x2 |[K:treble] x3 | x[K:bass] x2 |[K:treble] x3 | %107
 x[K:bass] x2 | x2 x3/4 x/8x/8 | x3 | x3 | x3 | x3 | x3 | x2 x3/4 x/4 | x3 | x3 | %117
[K:treble] x2 x3/4 x/4 | x3 | %119
[K:bass] x3/4 (3x/8x/8x/8[K:treble] x3/4 (3x/8x/8x/8 x3/4 (3x/8x/8x/8 | x3 | %121
[K:bass] x3/4 (3x/8x/8x/8[K:treble] x3/4 (3x/8x/8x/8 x3/4 (3x/8x/8x/8 | x3 | x3 | x3 || %125
[K:A][K:bass] x3/4 (3x/8x/8x/8[K:treble] x x3/4 (3x/8x/8x/8 | x2[K:bass] x | %127
[K:treble] x x3/4 x/8x/8 x | x3 | x3 | x3 |[K:bass] x3 | x3 | x3 | x3 | x3 | x3 | x3 | x3 || %139
[K:Db][K:treble] x3 | x3 | x3 |[K:bass] x3 | x3 | x3 | x3 | x3 | x3 | x3 | x3 | x3 || %151
[K:E][K:treble] x7/2 | x3 | x3 | x2[K:bass] x | x3 |[K:treble] x[K:bass] x2 | x3 | %158
[K:treble] x[K:bass] x2 | x3 |[K:treble] x[K:bass] x2 | x3 |[K:treble] x[K:bass] x2 | x3 | %164
 x2!8vb(! x!8vb)! ||[K:Db] [D,A,]2 x | x2 x3/4 x/4 |{/[D,,A,,]-} x3 | x3 |] %169
[K:A][M:3/4][K:treble] x6 | x6 | x6 | x6 | x6 | x6 | x6 | x6 | x6 | x6 | x6 |[K:bass] x6 | x6 | %182
[K:bass] x6 | x6 | x6 | x4 x7/4 x/8x/8 | x2[K:treble] x4 | x6 | x6 | x6 | x6 | x6 | x6 | x6 | %194
[K:bass] x6 | x6 | x6 | x6 | x6 | x6 | x6 |[K:treble] x6 | x6 | x6 | x6 ||[M:5/4] x10 | x10 | x10 | %208
[K:bass] x2[K:treble] x4[K:bass] x2[K:treble] x2 | %209
[K:bass] x2[K:treble] x4[K:bass] x2[K:treble] x2 | %210
[K:bass] x2[K:treble] x4[K:bass] x2[K:treble] x2 | x10 ||[M:4/4] x8 ||[M:5/4] x10 ||[M:4/4] x8 || %215
[M:3/4] x6 | x6 | x6 | x6 | x6 | x6 | x6 ||[M:5/4] x10 | x6[K:bass] x4 ||[M:3/4] x6 | x6 | x6 | %227
 x6 ||!8vb(! x6!8vb)! |[K:treble] x6 | x6 | x6 | x6 | x6 | x6 | x6 | x6 | x6 | x6 | %239
 x4!8va(! x2!8va)! |!8va(! x6 | x6!8va)! | x6 | x6 | x6 | x6 | x6 | x6 | x6 | x6 | x6 | x6 | x6 | %253
 x6 | x6 | x6 | x6 | x6 | x6 | x6 | x6 | x6 | x6 ||[M:5/4] x11 | x10 ||[M:2/4] x4 ||[M:5/4] x10 || %267
[M:2/4] x4 ||[M:3/4] x6 | x6 | x6 |[K:bass] x6 | x6 | x6 | x6 | x6 | x6 | x6 | x6 | x6 | x6 | x6 | %282
 x6 | x6 | x6 | x6 | x6 |[K:treble] x6 |[K:bass] x6 | x6 | x6 | x6 | x6 | x6 |[K:treble] x6 | %295
[K:bass] x2[K:treble] x4 | x6 | x6 | x6 |[K:bass] x6 |[K:treble] x6 | x6 | x6 | x6 | x6 | x6 | x6 | %307
 x6 ||[M:5/4] x10 | x10 | x10 |[K:bass] x2[K:treble] x4[K:bass] x2[K:treble] x2 | %312
[K:bass] x2[K:treble] x4[K:bass] x2[K:treble] x2 | %313
[K:bass] x2[K:treble] x4[K:bass] x2[K:treble] x2 ||[K:C] x10 ||[M:4/4] x8 ||[M:5/4] x10 || %317
[M:4/4] x8 ||[M:3/4] x6 | x6 | x6 | x6 ||[K:F#] x6 | x6 | x6 ||[M:5/4] x10 | x6[K:bass] x4 || %327
[M:3/4] x6 | x6 | x6 | x6 | x6 | x6 | x4[K:treble] x2 | x6 | x6 | x6 | x6 | x6 | x8 | x6 |] %341

